X:1
T:Ain't She Sweet
T:Ain't she sweet
T:Milton Ager
T:Jack Yellen
C:Milton Ager
Z:All Rights Reserved
L:1/4
M:4/4
K:C
V:1 treble 
%%MIDI program 4
V:1
"C" A2 ^G2 |"G7" G2 z A/G/ |"C" A A"Ab" ^G G |"G7" G2 z A/G/ |"G" c c"D7" B B |"A7" A A A/G/ F | %6
w: Ain't she|sweet see her|com- ing down the|street now I|ask you ver- y|con- fi- den- tial- ly|
"D7" E2"G7" D2 |"C" C3 z | A2"Ab" ^G2 |"G7" G2 z A/G/ |"C" A A"Ab" ^G G |"G7" G2 z A/G/ | %12
w: ain't she|sweet|ain't she|nice look her|ov- er once or|twice now I|
"C" c c"E7" B B |"A7" A A A/G/ F |"D7" E2"G7" D2 |"C" C"^N.C." c c c |"F" c4- | c c c c | %18
w: ask you ve- ry|con- fi- den- tial- ly|ain't she|nice just cast an|eye|_ in her di-|
"C" c2 G2 | z c c c |"F" c4- | c c c c |"C" c2 G2- |"G7" G4 |"C" A2"Ab" ^G2 |"G7" G2 z A/G/ | %26
w: rec- tion|oh me oh|my|_ ain't that per-|fec- tion|_|I re-|peat don't you|
"C" A A"Ab" ^G G |"G7" G2 z A/G/ |"C" c c"E7" B B |"A7" A A A/G/ F |"D7" E2"G7" D2 |"C" C2 z2 |] %32
w: think that's kind of|neat and I|ask you ve- ry|con- fi- den- tial- ly|ain't she|sweet.|

